libs/ui/packages/crypto-icons/src/svg/XIN.svg

<svg width="24" height="24" viewBox="0 0 24 24" fill="none">
<path d="M19.8356 5.50129L17.1131 6.70879C17.0337 6.75223 16.9674 6.81623 16.9213 6.89408C16.8751 6.97193 16.8507 7.06077 16.8506 7.15129V16.8863C16.8503 16.9778 16.8754 17.0676 16.9231 17.1457C16.9707 17.2238 17.0391 17.2872 17.1206 17.3288L19.8431 18.5063C19.8819 18.5275 19.9256 18.5382 19.9698 18.5373C20.014 18.5364 20.0572 18.5239 20.0951 18.5012C20.133 18.4784 20.1643 18.4462 20.1859 18.4076C20.2074 18.369 20.2186 18.3255 20.2181 18.2813V5.72629C20.2167 5.68202 20.2041 5.63883 20.1815 5.60073C20.1589 5.56264 20.127 5.53089 20.0889 5.50843C20.0507 5.48597 20.0074 5.47354 19.9632 5.47229C19.9189 5.47104 19.875 5.48102 19.8356 5.50129ZM6.79687 6.69379L4.15687 5.49379C4.11808 5.4726 4.07442 5.46193 4.03023 5.46282C3.98603 5.46372 3.94284 5.47615 3.90494 5.49889C3.86703 5.52164 3.83573 5.55389 3.81415 5.59247C3.79256 5.63104 3.78143 5.67459 3.78187 5.71879V18.2738C3.78191 18.3193 3.79408 18.364 3.81714 18.4032C3.8402 18.4424 3.87331 18.4748 3.91306 18.497C3.9528 18.5191 3.99774 18.5303 4.04324 18.5293C4.08873 18.5283 4.13314 18.5152 4.17187 18.4913L6.82687 17.0888C6.9002 17.0441 6.9608 16.9813 7.00283 16.9065C7.04487 16.8316 7.06692 16.7472 7.06687 16.6613V7.13629C7.06401 7.04547 7.03762 6.95695 6.9903 6.87939C6.94297 6.80183 6.87632 6.73788 6.79687 6.69379ZM15.0769 10.0163L12.2344 8.38879C12.158 8.34454 12.0714 8.32123 11.9831 8.32123C11.8949 8.32123 11.8082 8.34454 11.7319 8.38879L8.83687 10.0013C8.75943 10.0464 8.69513 10.1109 8.65039 10.1886C8.60565 10.2662 8.58203 10.3542 8.58187 10.4438V13.7438C8.58187 13.926 8.67937 14.0948 8.83687 14.1863L11.7319 15.8513C11.8871 15.9413 12.0791 15.9413 12.2344 15.8513L15.0769 14.2013C15.1543 14.1562 15.2186 14.0917 15.2634 14.014C15.3081 13.9364 15.3317 13.8484 15.3319 13.7588V10.4588C15.3326 10.369 15.3094 10.2806 15.2646 10.2028C15.2197 10.1251 15.1549 10.0606 15.0769 10.0163Z" fill="#1EB5FA"/>
</svg>

<svg width="24" height="24" viewBox="0 0 24 24" fill="none"><path fill="#1eb5fa" d="M19.836 5.501 17.113 6.71a.5.5 0 0 0-.262.442v9.735a.5.5 0 0 0 .27.443l2.722 1.177a.254.254 0 0 0 .375-.225V5.726a.262.262 0 0 0-.382-.225M6.796 6.694l-2.64-1.2a.254.254 0 0 0-.374.225v12.555a.256.256 0 0 0 .39.217l2.655-1.402a.5.5 0 0 0 .24-.428V7.136a.53.53 0 0 0-.27-.442m8.28 3.322L12.235 8.39a.5.5 0 0 0-.502 0L8.837 10a.51.51 0 0 0-.255.443v3.3c0 .182.097.35.255.442l2.895 1.665a.5.5 0 0 0 .502 0l2.843-1.65a.51.51 0 0 0 .255-.442v-3.3a.5.5 0 0 0-.255-.443"/></svg>
